packages/ui-icons/svg/Line/discussion-reply-2.svg

<svg viewBox="0 0 1920 1920" version="1.1" xmlns="http://www.w3.org/2000/svg">
    <path d="M835.9424,632.5632 L244.9664,632.5632 L723.0464,154.4832 L632.5504,63.9872 L-0.0256,696.5632 L632.5504,1329.1392 L723.0464,1238.6432 L244.9664,760.5632 L835.9424,760.5632 C1340.3904,760.5632 1750.7584,1170.9312 1750.7584,1675.3792 L1750.7584,1784.5632 L1878.7584,1784.5632 L1878.7584,1675.3792 C1878.7584,1100.4032 1410.9184,632.5632 835.9424,632.5632" stroke="none" stroke-width="1" fill-rule="evenodd"/>
</svg>

<svg viewBox="0 0 1920 1920" version="1.1" xmlns="http://www.w3.org/2000/svg">
    <path d="M835.942 632.563H244.966l478.08-478.08-90.496-90.496L-.026 696.563 632.55 1329.14l90.496-90.496-478.08-478.08h590.976c504.448 0 914.816 410.368 914.816 914.816v109.184h128V1675.38c0-574.976-467.84-1042.816-1042.816-1042.816" stroke="none" stroke-width="1" fill-rule="evenodd"/>
</svg>
